svg/color/bafi.svg

<?xml version="1.0" encoding="UTF-8" ?>
<!DOCTYPE svg PUBLIC "-//W3C//DTD SVG 1.1//EN" "http://www.w3.org/Graphics/SVG/1.1/DTD/svg11.dtd">
<svg width="250pt" height="250pt" viewBox="0 0 250 250" version="1.1" xmlns="http://www.w3.org/2000/svg">
<g id="#373833ff">
<path fill="#373833" opacity="1.00" d=" M 0.00 0.00 L 250.00 0.00 L 250.00 250.00 L 0.00 250.00 L 0.00 0.00 M 106.99 89.99 C 105.97 91.15 104.35 92.23 104.61 94.00 C 104.58 114.26 104.66 134.52 104.58 154.78 C 110.52 155.61 116.53 155.07 122.47 154.52 C 122.43 127.97 122.59 101.42 122.38 74.88 C 117.04 79.69 112.19 85.02 106.99 89.99 M 124.70 74.89 C 124.51 101.43 124.65 127.97 124.62 154.52 C 129.45 153.84 134.24 152.98 139.05 152.23 L 139.86 151.62 C 140.52 151.55 141.84 151.42 142.50 151.35 C 142.44 131.58 142.62 111.81 142.41 92.04 C 136.29 86.55 130.95 80.23 124.70 74.89 M 152.38 97.70 C 152.12 114.48 152.30 131.27 152.29 148.05 C 158.32 146.55 163.98 143.89 169.52 141.13 C 169.57 132.32 169.48 123.51 169.59 114.69 C 163.92 108.97 158.40 103.07 152.38 97.70 M 77.61 118.97 C 77.61 129.46 77.67 139.94 77.57 150.42 C 83.38 152.21 89.39 153.50 95.47 153.86 C 95.41 136.27 95.56 118.68 95.39 101.10 C 89.48 107.08 83.47 112.95 77.61 118.97 M 171.71 116.01 C 171.61 121.06 171.65 126.12 171.70 131.17 C 177.80 132.20 183.87 133.48 189.99 134.44 C 184.35 127.89 178.05 121.87 171.71 116.01 M 59.20 136.24 C 57.03 137.96 57.80 140.86 57.63 143.26 C 63.29 146.14 69.31 148.32 75.45 149.94 C 75.44 139.99 75.57 130.04 75.37 120.10 C 69.86 125.36 64.53 130.81 59.20 136.24 M 172.04 134.33 C 173.53 136.78 175.09 139.24 175.81 142.06 C 169.01 145.25 162.30 148.69 155.14 151.02 C 142.30 155.84 128.59 157.63 114.97 158.39 C 94.73 158.11 74.22 154.30 56.03 145.13 C 74.69 156.96 96.85 163.62 119.01 162.75 C 140.94 163.56 162.54 157.35 182.27 148.15 C 183.40 150.09 184.47 152.09 185.85 153.88 C 187.23 153.70 187.60 152.29 188.22 151.27 C 190.23 147.31 192.29 143.36 194.56 139.54 C 194.55 139.11 194.53 138.25 194.52 137.82 C 186.94 137.30 179.62 134.95 172.04 134.33 Z" />
</g>
<g id="#f1d247ff">
<path fill="#f1d247" opacity="1.00" d=" M 106.99 89.99 C 112.19 85.02 117.04 79.69 122.38 74.88 C 122.59 101.42 122.43 127.97 122.47 154.52 C 116.53 155.07 110.52 155.61 104.58 154.78 C 104.66 134.52 104.58 114.26 104.61 94.00 C 104.35 92.23 105.97 91.15 106.99 89.99 Z" />
<path fill="#f1d247" opacity="1.00" d=" M 124.70 74.89 C 130.95 80.23 136.29 86.55 142.41 92.04 C 142.62 111.81 142.44 131.58 142.50 151.35 C 141.84 151.42 140.52 151.55 139.86 151.62 L 139.05 152.23 C 134.24 152.98 129.45 153.84 124.62 154.52 C 124.65 127.97 124.51 101.43 124.70 74.89 Z" />
<path fill="#f1d247" opacity="1.00" d=" M 152.38 97.70 C 158.40 103.07 163.92 108.97 169.59 114.69 C 169.48 123.51 169.57 132.32 169.52 141.13 C 163.98 143.89 158.32 146.55 152.29 148.05 C 152.30 131.27 152.12 114.48 152.38 97.70 Z" />
<path fill="#f1d247" opacity="1.00" d=" M 77.61 118.97 C 83.47 112.95 89.48 107.08 95.39 101.10 C 95.56 118.68 95.41 136.27 95.47 153.86 C 89.39 153.50 83.38 152.21 77.57 150.42 C 77.67 139.94 77.61 129.46 77.61 118.97 Z" />
<path fill="#f1d247" opacity="1.00" d=" M 171.71 116.01 C 178.05 121.87 184.35 127.89 189.99 134.44 C 183.87 133.48 177.80 132.20 171.70 131.17 C 171.65 126.12 171.61 121.06 171.71 116.01 Z" />
<path fill="#f1d247" opacity="1.00" d=" M 59.20 136.24 C 64.53 130.81 69.86 125.36 75.37 120.10 C 75.57 130.04 75.44 139.99 75.45 149.94 C 69.31 148.32 63.29 146.14 57.63 143.26 C 57.80 140.86 57.03 137.96 59.20 136.24 Z" />
<path fill="#f1d247" opacity="1.00" d=" M 172.04 134.33 C 179.62 134.95 186.94 137.30 194.52 137.82 C 194.53 138.25 194.55 139.11 194.56 139.54 C 192.29 143.36 190.23 147.31 188.22 151.27 C 187.60 152.29 187.23 153.70 185.85 153.88 C 184.47 152.09 183.40 150.09 182.27 148.15 C 162.54 157.35 140.94 163.56 119.01 162.75 C 96.85 163.62 74.69 156.96 56.03 145.13 C 74.22 154.30 94.73 158.11 114.97 158.39 C 128.59 157.63 142.30 155.84 155.14 151.02 C 162.30 148.69 169.01 145.25 175.81 142.06 C 175.09 139.24 173.53 136.78 172.04 134.33 Z" />
</g>
</svg>

<?xml version="1.0" encoding="utf-8"?>
<!-- Generator: Adobe Illustrator 26.0.3, SVG Export Plug-In . SVG Version: 6.00 Build 0)  -->
<svg version="1.1" id="Layer_1" xmlns="http://www.w3.org/2000/svg" xmlns:xlink="http://www.w3.org/1999/xlink" x="0px" y="0px"
	 viewBox="0 0 250 250" style="enable-background:new 0 0 250 250;" xml:space="preserve">
<style type="text/css">
	.st0{fill:#373833;}
	.st1{fill:#F1D247;}
</style>
<circle class="st0" cx="125" cy="125.5" r="125"/>
<g id="_x23_f1d247ff">
	<path class="st1" d="M107,90c5.2-5,10.1-10.3,15.4-15.1c0.2,26.5,0.1,53.1,0.1,79.6c-5.9,0.6-12,1.1-17.9,0.3
		c0.1-20.3,0-40.5,0-60.8C104.3,92.2,106,91.2,107,90z"/>
	<path class="st1" d="M124.7,74.9c6.2,5.3,11.6,11.7,17.7,17.2c0.2,19.8,0,39.5,0.1,59.3c-0.7,0.1-2,0.2-2.6,0.3l-0.8,0.6
		c-4.8,0.8-9.6,1.6-14.4,2.3C124.7,128,124.5,101.4,124.7,74.9z"/>
	<path class="st1" d="M152.4,97.7c6,5.4,11.5,11.3,17.2,17c-0.1,8.8,0,17.6-0.1,26.4c-5.5,2.8-11.2,5.4-17.2,6.9
		C152.3,131.3,152.1,114.5,152.4,97.7z"/>
	<path class="st1" d="M77.6,119c5.9-6,11.9-11.9,17.8-17.9c0.2,17.6,0,35.2,0.1,52.8c-6.1-0.4-12.1-1.6-17.9-3.4
		C77.7,139.9,77.6,129.5,77.6,119z"/>
	<path class="st1" d="M171.7,116c6.3,5.9,12.6,11.9,18.3,18.4c-6.1-1-12.2-2.2-18.3-3.3C171.6,126.1,171.6,121.1,171.7,116z"/>
	<path class="st1" d="M59.2,136.2c5.3-5.4,10.7-10.9,16.2-16.1c0.2,9.9,0.1,19.9,0.1,29.8c-6.1-1.6-12.2-3.8-17.8-6.7
		C57.8,140.9,57,138,59.2,136.2z"/>
	<path class="st1" d="M172,134.3c7.6,0.6,14.9,3,22.5,3.5c0,0.4,0,1.3,0,1.7c-2.3,3.8-4.3,7.8-6.3,11.7c-0.6,1-1,2.4-2.4,2.6
		c-1.4-1.8-2.5-3.8-3.6-5.7c-19.7,9.2-41.3,15.4-63.3,14.6c-22.2,0.9-44.3-5.8-63-17.6c18.2,9.2,38.7,13,58.9,13.3
		c13.6-0.8,27.3-2.6,40.2-7.4c7.2-2.3,13.9-5.8,20.7-9C175.1,139.2,173.5,136.8,172,134.3z"/>
</g>
</svg>
